material/.icons/material/voice-off.svg

<svg xmlns="http://www.w3.org/2000/svg" viewBox="0 0 24 24"><path d="M2 3.27L3.28 2 22 20.72 20.73 22l-4-4c.17.31.27.64.27 1v2H1v-2c0-2.66 5.33-4 8-4 1.77 0 4.72.59 6.5 1.77l-4.38-4.38c-.62.39-1.34.61-2.12.61a4 4 0 01-4-4c0-.78.22-1.5.61-2.12L2 3.27M9 5a4 4 0 014 4v.17L8.83 5H9m7.76.36c2.02 2.2 2.02 5.25 0 7.27l-1.68-1.69c.84-1.18.84-2.71 0-3.89l1.68-1.69M20.07 2c3.93 4.05 3.9 10.11 0 14l-1.63-1.63c2.77-3.18 2.77-7.72 0-10.74L20.07 2z"/></svg>

<?xml version="1.0" encoding="UTF-8"?><!DOCTYPE svg PUBLIC "-//W3C//DTD SVG 1.1//EN" "http://www.w3.org/Graphics/SVG/1.1/DTD/svg11.dtd"><svg xmlns="http://www.w3.org/2000/svg" xmlns:xlink="http://www.w3.org/1999/xlink" version="1.1" id="mdi-voice-off" width="24" height="24" viewBox="0 0 24 24"><path d="M2,3.27L3.28,2L22,20.72L20.73,22L16.73,18C16.9,18.31 17,18.64 17,19V21H1V19C1,16.34 6.33,15 9,15C10.77,15 13.72,15.59 15.5,16.77L11.12,12.39C10.5,12.78 9.78,13 9,13A4,4 0 0,1 5,9C5,8.22 5.22,7.5 5.61,6.88L2,3.27M9,5A4,4 0 0,1 13,9V9.17L8.83,5H9M16.76,5.36C18.78,7.56 18.78,10.61 16.76,12.63L15.08,10.94C15.92,9.76 15.92,8.23 15.08,7.05L16.76,5.36M20.07,2C24,6.05 23.97,12.11 20.07,16L18.44,14.37C21.21,11.19 21.21,6.65 18.44,3.63L20.07,2Z" /></svg>
